X:20
T:Ductie
C:--
O:France                           %origin
Z:Transcrit et/ou corrig par Michel BELLON - 2005-03-24
Z:Pour toute observation mailto:galouvielle@free.fr
M:2                           % type of bar  4/4 or 3/4 
L:1/8
Q:"Allegro"
K:G
V:1
A2B (cB)A | G3 G2E | F2D E2F | G3z2z | A2F G2A | G3 E2C | (DE)F (GA)F | G3z2z | E2F G2A | B2A F2G |
E2F GBG | A3 z2z | G2F E2D | F3 F2G | E3 E2F | G3 z2z | A2A (GF)E | G3 G2B | A2A (GF)E | D3 z2z |
A2A (GF)E | G3 G2B | A2A (GF)E | D3 z2z |: G2F G2E | F3 F2D |1 E3 F2D | F3 E3 :|2 E3 F2E | D6 |]
V:2
D2D CB,A, | C3 C2E | D2D (CB,)A, | G,3 z2z | D2D (CB,)A, | C3 C2E | D2D (CB,)A, | G,3 z2z | C2B, C2D | B,3 B,2G, |
A,2B, C2B, | A,3 z2z | C2B, C2D | B,3 B,2G, | A,3 B,2A, | G,3 z2z | D3 E3 | C3 C2B, | D3C3 | D3 z2z |
A,3 C3 | G,3 C2B, | D3C3 | D3 z2z |: C2D C2A, | B,3 B,2C | A,2B, G,2B, | A,3 z2z | A,3 B,2C | D6 |]
%%footer $D   Galouvielle-MBe 2005 \n-- Sarajevo                           %origin
